svg/Pictogram/pictograms-nps-services-picnic_shelter.svg

<svg xmlns="http://www.w3.org/2000/svg" width="123.55" height="123.54" viewBox="-0.258 -0.548 123.547 123.539" enable-background="new -0.258 -0.548 123.547 123.539"><path d="m108.96 123.6c8.156 0 14.773-6.594 14.773-14.75v-94.02c0-8.148-6.617-14.766-14.773-14.766h-94.02c-8.148 0-14.765 6.618-14.765 14.766v94.02c0 8.156 6.617 14.75 14.766 14.75h94.02"/><path d="m14.945 2.566c-6.758 0-12.266 5.5-12.266 12.266v94.02c0 6.766 5.508 12.258 12.266 12.258h94.02c6.766 0 12.281-5.492 12.281-12.258v-94.02c0-6.766-5.516-12.266-12.281-12.266h-94.02"/><g fill="#fff"><path d="m21.758 106.48h87.72v-9.11h-78.61v-38.23l78.61-35.527v-9.473l-97.51 44.04v9.48l9.789-4.4z"/><path d="m87.65 56.684v4.891h-8.03l4.758 11.656h12.02v4.852h-10.06l5.57 13.648h-5.891l-5.562-13.648h-18l-5.531 13.647h-5.906l5.57-13.648h-10.05v-4.852h12.02l4.734-11.656h-8.03v-4.891h32.391m-9.179 16.547l-4.734-11.656h-4.547l-4.75 11.656h14.03"/></g></svg>

<?xml version="1.0" encoding="iso-8859-1"?>
<!-- Generator: Adobe Illustrator 13.0.2, SVG Export Plug-In . SVG Version: 6.00 Build 14948)  -->
<!DOCTYPE svg PUBLIC "-//W3C//DTD SVG 1.1//EN" "http://www.w3.org/Graphics/SVG/1.1/DTD/svg11.dtd">
<svg version="1.1" id="Layer_1" xmlns="http://www.w3.org/2000/svg" xmlns:xlink="http://www.w3.org/1999/xlink" x="0px" y="0px"
	 width="123.547px" height="123.539px" viewBox="-0.258 -0.548 123.547 123.539"
	 style="enable-background:new -0.258 -0.548 123.547 123.539;" xml:space="preserve">
<g>
	<path d="M108.961,123.598c8.156,0,14.773-6.594,14.773-14.75V14.832c0-8.148-6.617-14.766-14.773-14.766H14.945
		C6.797,0.066,0.18,6.684,0.18,14.832v94.016c0,8.156,6.617,14.75,14.766,14.75H108.961z"/>
	<path d="M14.945,2.566c-6.758,0-12.266,5.5-12.266,12.266v94.016c0,6.766,5.508,12.258,12.266,12.258h94.016
		c6.766,0,12.281-5.492,12.281-12.258V14.832c0-6.766-5.516-12.266-12.281-12.266H14.945z"/>
	<polygon style="fill:#FFFFFF;" points="21.758,106.48 109.477,106.48 109.477,97.371 30.867,97.371 30.867,59.137 109.477,23.613 
		109.477,14.137 11.969,58.184 11.969,67.66 21.758,63.262 	"/>
	<path style="fill:#FFFFFF;" d="M87.648,56.684v4.891h-8.031l4.758,11.656h12.016v4.852H86.328l5.57,13.648h-5.891l-5.562-13.648
		h-18L56.914,91.73h-5.906l5.57-13.648H46.531V73.23h12.023l4.734-11.656h-8.031v-4.891H87.648z M78.469,73.23l-4.734-11.656h-4.547
		l-4.75,11.656H78.469z"/>
</g>
</svg>
